symbols/web/no_food/materialsymbolsrounded/no_food_wght200gradN25fill1_40px.svg

<svg xmlns="http://www.w3.org/2000/svg" height="40" width="40"><path d="M33.708 31.167 19.833 17.25l-.708-5.208q-.042-.417.25-.73.292-.312.75-.312h6.542V4.792q0-.292.208-.48.208-.187.5-.187.25 0 .458.187.209.188.209.48V11h6.708q.417 0 .688.312.27.313.229.73Zm-28.833.25q-.292 0-.479-.188-.188-.187-.188-.479t.188-.479q.187-.188.479-.188H25.5q.292 0 .479.188.188.187.188.479t-.188.479q-.187.188-.479.188Zm0 5.125q-.292 0-.479-.188-.188-.187-.188-.479t.188-.479q.187-.188.479-.188H25.5q.292 0 .479.209.188.208.188.458 0 .292-.188.479-.187.188-.479.188Zm28.25.208L22.792 26.417H5.333q-.5 0-.791-.334-.292-.333-.209-.708.542-2.25 3.209-4 2.666-1.75 7.666-1.75.792 0 1.521.042.729.041 1.396.166l.042 1.959L2.083 5.667q-.208-.167-.229-.459-.021-.291.229-.458.167-.25.459-.25.291 0 .5.25l31.083 31.042q.208.208.208.5 0 .291-.208.5-.208.208-.479.208t-.521-.25Z"/></svg>

<svg xmlns="http://www.w3.org/2000/svg" height="40" width="40"><path d="M33.167 36.75 22.792 26.417H4.208Q4.208 23.167 7.5 21.292Q10.792 19.417 15.583 19.542H15.917L2.083 5.667Q1.875 5.5 1.854 5.208Q1.833 4.917 2.083 4.75Q2.25 4.542 2.542 4.542Q2.833 4.542 3.042 4.708L34.125 35.792Q34.333 36 34.333 36.292Q34.333 36.583 34.125 36.75Q33.917 37 33.646 37Q33.375 37 33.167 36.75ZM4.958 36.542Q4.625 36.542 4.417 36.354Q4.208 36.167 4.208 35.833Q4.208 35.458 4.417 35.271Q4.625 35.083 4.958 35.083H25.458Q25.792 35.083 25.979 35.271Q26.167 35.458 26.167 35.833Q26.167 36.167 25.979 36.354Q25.792 36.542 25.458 36.542ZM4.958 31.5Q4.625 31.5 4.417 31.312Q4.208 31.125 4.208 30.75Q4.208 30.417 4.417 30.229Q4.625 30.042 4.958 30.042H25.458Q25.792 30.042 25.979 30.229Q26.167 30.417 26.167 30.75Q26.167 31.083 25.979 31.292Q25.792 31.5 25.458 31.5ZM33.708 31.167 19.833 17.25 19.125 12.042Q19.083 11.625 19.354 11.312Q19.625 11 20.125 11H26.667V4.792Q26.667 4.5 26.875 4.312Q27.083 4.125 27.375 4.125Q27.625 4.125 27.833 4.312Q28.042 4.5 28.042 4.792V11H34.75Q35.167 11 35.438 11.312Q35.708 11.625 35.667 12.042Z"/></svg>
